X: 1
M: 4/4
K: C
|: "Fmaj7add9" F,cccc2cG | F,ccc(c2d2) | "Em" E,BBBB2BA | G5B2 :|
|: "Fmaj7add9" F,GcGe2cG | e4 c2G2 | "Em" E,GBGg2BG | g4 B2G2 :|
|: "Fmaj7" [A,FAce]2 [A,FAce][A,FAce] -[A,FAce][A,FAce] [A,FAce][A,FAce] |\
[A,FAce]2 [A,FAce][A,FAce] -[A,FAce][A,FAce] [A,FAce][A,FAce] |
| "Em" [B,EGBe]2 [B,EGBe][B,EGBe] -[B,EGBe][B,EGBe] [B,EGBe][B,EGBe] |\
[B,EGBe]2 [B,EGBe][B,EGBe] -[B,EGBe][B,EGBe] [B,EGBe][B,EGBe] :|
